assets/images/payments/monero.svg

<svg width="100" height="60" viewBox="0 0 100 60" version="1.1" xmlns="http://www.w3.org/2000/svg" xmlns:xlink="http://www.w3.org/1999/xlink"><title>Monero-light</title><desc>Created with Sketch.</desc><g id="Light-Payment-badges" stroke="none" stroke-width="1" fill="none" fill-rule="evenodd" transform="translate(-290.000000, -1289.000000)"><g id="Monero-light" transform="translate(290.000000, 1289.000000)"><rect id="Rectangle" fill="#FFF" x="0" y="0" width="100" height="60" rx="4"/><path d="M24.9943262,21.156 C20.0751773,21.156 16.0964539,25.116 16.0964539,30.012 C16.0964539,30.996 16.2652482,31.932 16.5546099,32.82 L19.2070922,32.82 L19.2070922,25.38 L24.9943262,31.14 L30.7815603,25.38 L30.7815603,32.82 L33.4340426,32.82 C33.7234043,31.932 33.8921986,30.996 33.8921986,30.012 C33.8921986,25.116 29.9134752,21.156 24.9943262,21.156 L24.9943262,21.156 L24.9943262,21.156 Z" id="_149931032_2_" fill="#F60"/><path d="M23.6680851,32.436 L21.1361702,29.916 L21.1361702,34.596 L20.1716312,34.596 L19.2070922,34.596 L17.3985816,34.596 C18.9659574,37.14 21.787234,38.844 24.9943262,38.844 C28.2014184,38.844 31.0468085,37.14 32.5900709,34.596 L30.7815603,34.596 L29.0453901,34.596 L28.8524823,34.596 L28.8524823,29.916 L26.3446809,32.436 L25.0184397,33.756 L23.6680851,32.436 L23.6680851,32.436 Z" id="_149931160_2_" fill="#4C4C4C"/><path d="M82.7460993,27.996 C81.9985816,27.228 81.0822695,26.868 80.0453901,26.868 C79.3460993,26.868 78.6950355,27.036 78.1163121,27.396 C77.5134752,27.732 77.0312057,28.212 76.693617,28.812 C76.3560284,29.412 76.187234,30.06 76.187234,30.756 C76.187234,31.812 76.5489362,32.724 77.2964539,33.492 C78.0439716,34.26 78.9602837,34.644 80.0695035,34.644 C81.1304965,34.644 82.0468085,34.26 82.7943262,33.516 C83.541844,32.772 83.9035461,31.86 83.9035461,30.78 C83.8794326,29.676 83.5177305,28.74 82.7460993,27.996 L82.7460993,27.996 Z M81.7574468,32.532 C81.2751773,33.012 80.7205674,33.252 80.0453901,33.252 C79.4425532,33.252 78.9361702,33.06 78.4780142,32.7 C77.8992908,32.22 77.5858156,31.572 77.5858156,30.756 C77.5858156,30.012 77.8269504,29.412 78.2851064,28.932 C78.7432624,28.452 79.3219858,28.212 80.0212766,28.212 C80.6964539,28.212 81.2751773,28.452 81.7574468,28.932 C82.2397163,29.412 82.4808511,30.012 82.4808511,30.708 C82.4808511,31.452 82.2397163,32.052 81.7574468,32.532 L81.7574468,32.532 Z" id="Shape" fill="#4C4C4C"/><path d="M73.7035461,31.164 C74.1858156,30.996 74.5716312,30.732 74.812766,30.396 C75.0539007,30.06 75.1744681,29.628 75.1744681,29.124 C75.1744681,28.644 75.0539007,28.212 74.8368794,27.852 C74.6198582,27.492 74.3304965,27.252 73.9446809,27.084 C73.5588652,26.916 72.9560284,26.844 72.1120567,26.844 L69.387234,26.844 L69.387234,34.596 L70.8822695,34.596 L70.8822695,31.308 L72.1843972,31.308 L73.9446809,34.596 L75.5602837,34.596 L73.7035461,31.164 L73.7035461,31.164 Z M73.4624113,29.7 C73.293617,29.82 73.1971631,29.892 72.7148936,29.892 L70.858156,29.892 L70.858156,28.308 L72.6666667,28.308 C73.0283688,28.308 73.1007092,28.332 73.2453901,28.38 C73.3900709,28.428 73.5106383,28.524 73.6070922,28.644 C73.7035461,28.764 73.7276596,28.908 73.7276596,29.076 C73.7276596,29.388 73.6553191,29.58 73.4624113,29.7 L73.4624113,29.7 Z" id="Shape" fill="#4C4C4C"/><polygon id="Shape" fill="#4C4C4C" points="62.7319149 26.868 67.7957447 26.868 67.7957447 28.308 64.2028369 28.308 64.2028369 29.892 67.7957447 29.892 67.7957447 31.308 64.2028369 31.308 64.2028369 33.156 67.7957447 33.156 67.7957447 34.62 62.7319149 34.62"/><polygon id="Shape" fill="#4C4C4C" points="54.8950355 26.868 56.3177305 26.868 59.6695035 31.956 59.6695035 26.868 61.1404255 26.868 61.1404255 34.62 59.7177305 34.62 56.3900709 29.532 56.3900709 34.62 54.8950355 34.62"/><path d="M52.6042553,27.996 C51.8567376,27.252 50.9404255,26.868 49.9035461,26.868 C49.2042553,26.868 48.577305,27.036 47.9744681,27.396 C47.3716312,27.732 46.9134752,28.212 46.551773,28.812 C46.2141844,29.412 46.0453901,30.06 46.0453901,30.756 C46.0453901,31.812 46.4070922,32.724 47.1546099,33.492 C47.8780142,34.26 48.8184397,34.644 49.9276596,34.644 C50.9886525,34.644 51.8808511,34.284 52.6283688,33.516 C53.3758865,32.772 53.7375887,31.86 53.7375887,30.78 C53.7134752,29.676 53.351773,28.74 52.6042553,27.996 L52.6042553,27.996 Z M51.6156028,32.508 C51.1574468,32.988 50.5787234,33.228 49.9035461,33.228 C49.3007092,33.228 48.7943262,33.036 48.3361702,32.676 C47.7574468,32.196 47.4439716,31.548 47.4439716,30.732 C47.4439716,30.012 47.6851064,29.388 48.1432624,28.932 C48.6014184,28.452 49.1801418,28.212 49.8794326,28.212 C50.5546099,28.212 51.1333333,28.452 51.6156028,28.932 C52.0978723,29.412 52.3390071,30.012 52.3390071,30.708 C52.3148936,31.452 52.0737589,32.028 51.6156028,32.508 L51.6156028,32.508 Z" id="Shape" fill="#4C4C4C"/><polygon id="_74749088_2_" fill="#4C4C4C" points="37.6297872 26.868 39.0765957 26.868 40.8851064 32.292 42.7177305 26.868 44.1404255 26.868 45.4425532 34.62 44.0198582 34.62 43.1758865 29.724 41.5120567 34.62 40.2099291 34.62 38.5702128 29.724 37.7262411 34.62 36.2794326 34.62"/></g></g></svg>

<svg width="100" height="60" xmlns="http://www.w3.org/2000/svg"><g fill="none" fill-rule="evenodd"><rect fill="#FFF" width="100" height="60" rx="4"/><path d="M24.994 21.156c-4.919 0-8.898 3.96-8.898 8.856 0 .984.17 1.92.459 2.808h2.652v-7.44l5.787 5.76 5.788-5.76v7.44h2.652a9 9 0 00.458-2.808c0-4.896-3.979-8.856-8.898-8.856z" fill="#F60"/><path d="M23.668 32.436l-2.532-2.52v4.68H17.4a8.922 8.922 0 007.595 4.248 8.892 8.892 0 007.596-4.248h-3.738v-4.68l-2.507 2.52-1.327 1.32-1.35-1.32zm59.078-4.44c-.747-.768-1.664-1.128-2.7-1.128-.7 0-1.351.168-1.93.528a3.659 3.659 0 00-1.422 1.416 3.9 3.9 0 00-.507 1.944c0 1.056.362 1.968 1.11 2.736.747.768 1.663 1.152 2.773 1.152a3.742 3.742 0 002.724-1.128c.748-.744 1.11-1.656 1.11-2.736-.025-1.104-.386-2.04-1.158-2.784zm-.989 4.536c-.482.48-1.036.72-1.712.72a2.448 2.448 0 01-1.567-.552c-.579-.48-.892-1.128-.892-1.944 0-.744.241-1.344.7-1.824.457-.48 1.036-.72 1.735-.72.675 0 1.254.24 1.736.72.483.48.724 1.08.724 1.776 0 .744-.241 1.344-.724 1.824zm-8.053-1.368c.482-.168.868-.432 1.109-.768.24-.336.361-.768.361-1.272 0-.48-.12-.912-.337-1.272-.217-.36-.507-.6-.892-.768-.386-.168-.989-.24-1.833-.24h-2.725v7.752h1.495v-3.288h1.302l1.76 3.288h1.616l-1.856-3.432zm-.242-1.464c-.168.12-.265.192-.747.192h-1.857v-1.584h1.809c.361 0 .434.024.578.072a.788.788 0 01.362.264c.097.12.12.264.12.432 0 .312-.072.504-.265.624zm-10.73-2.832h5.064v1.44h-3.593v1.584h3.593v1.416h-3.593v1.848h3.593v1.464h-5.064zm-7.837 0h1.423l3.352 5.088v-5.088h1.47v7.752h-1.422l-3.328-5.088v5.088h-1.495zm-2.291 1.128c-.747-.744-1.664-1.128-2.7-1.128-.7 0-1.327.168-1.93.528-.602.336-1.06.816-1.422 1.416a3.9 3.9 0 00-.507 1.944c0 1.056.362 1.968 1.11 2.736.723.768 1.663 1.152 2.773 1.152 1.06 0 1.953-.36 2.7-1.128.748-.744 1.11-1.656 1.11-2.736-.025-1.104-.386-2.04-1.134-2.784zm-.988 4.512c-.459.48-1.037.72-1.712.72-.603 0-1.11-.192-1.568-.552-.579-.48-.892-1.128-.892-1.944 0-.72.241-1.344.7-1.8.457-.48 1.036-.72 1.735-.72.676 0 1.254.24 1.737.72.482.48.723 1.08.723 1.776-.024.744-.265 1.32-.723 1.8zm-13.986-5.64h1.447l1.808 5.424 1.833-5.424h1.422l1.303 7.752H44.02l-.844-4.896-1.664 4.896H40.21l-1.64-4.896-.844 4.896H36.28z" fill="#4C4C4C"/></g></svg>
